!SVG/adobe_captivate.svg

<!-- Generated by IcoMoon.io -->
<svg version="1.1" xmlns="http://www.w3.org/2000/svg" width="32" height="32" viewBox="0 0 32 32">
<title>adobe_captivate</title>
<path d="M5.9 6.1h20.2v19.7h-20.2v-19.7zM4.9 26.8h22.2v-21.6h-22.2v21.6z"></path>
<path d="M15.4 20.1v-1.2c0-0.1 0-0.1-0.1-0.1-0.4 0.2-0.8 0.2-1.4 0.2-1.3 0-3-0.9-3-3.7 0-2.3 1.2-3.7 3-3.7 0.6 0 1.2 0.1 1.6 0.3 0 0 0.1 0 0.1-0.1v-1.3c0-0.1 0-0.1-0.1-0.2-0.3-0.1-0.8-0.2-1.6-0.2-2.8 0-4.7 2.1-4.7 5.3 0 3.7 2.1 5.2 4.5 5.2 0.7 0 1.3-0.1 1.7-0.2 0-0.1 0-0.2 0-0.3v0zM18.4 14.3c0.3-0.1 0.5-0.1 0.8-0.1 1.2 0 1.8 0.8 1.8 2.3 0 1.9-1.1 2.6-2.1 2.6-0.2 0-0.4 0-0.5-0.1v-4.7zM19.4 12.8c-1.1 0-2 0.3-2.6 0.5 0 0-0.1 0.1-0.1 0.1 0 0.2 0.1 0.6 0.1 0.7v8.6c0 0.1 0.1 0.1 0.1 0.1l1.5-0.1c0.1 0 0.1-0.1 0.1-0.1v-2c0.1 0 0.3 0 0.4 0 2 0 3.9-1.4 3.9-4.1-0.1-2.2-1.2-3.7-3.4-3.7v0z"></path>
</svg>

<?xml version="1.0" encoding="utf-8"?>
<!-- Generator: Adobe Illustrator 22.0.1, SVG Export Plug-In . SVG Version: 6.00 Build 0)  -->
<svg version="1.1" id="Layer_1" xmlns="http://www.w3.org/2000/svg" xmlns:xlink="http://www.w3.org/1999/xlink" x="0px" y="0px"
	 viewBox="0 0 32 32" style="enable-background:new 0 0 32 32;" xml:space="preserve">
<title>angular</title>
<path d="M5.9,6.1h20.2v19.7H5.9V6.1L5.9,6.1z M4.9,26.8h22.2V5.2H4.9V26.8z"/>
<path d="M15.4,20.1v-1.2c0-0.1,0-0.1-0.1-0.1C14.9,19,14.5,19,13.9,19c-1.3,0-3-0.9-3-3.7c0-2.3,1.2-3.7,3-3.7
	c0.6,0,1.2,0.1,1.6,0.3c0,0,0.1,0,0.1-0.1v-1.3c0-0.1,0-0.1-0.1-0.2c-0.3-0.1-0.8-0.2-1.6-0.2c-2.8,0-4.7,2.1-4.7,5.3
	c0,3.7,2.1,5.2,4.5,5.2c0.7,0,1.3-0.1,1.7-0.2C15.4,20.3,15.4,20.2,15.4,20.1L15.4,20.1z M18.4,14.3c0.3-0.1,0.5-0.1,0.8-0.1
	c1.2,0,1.8,0.8,1.8,2.3c0,1.9-1.1,2.6-2.1,2.6c-0.2,0-0.4,0-0.5-0.1L18.4,14.3L18.4,14.3z M19.4,12.8c-1.1,0-2,0.3-2.6,0.5
	c0,0-0.1,0.1-0.1,0.1c0,0.2,0.1,0.6,0.1,0.7v8.6c0,0.1,0.1,0.1,0.1,0.1l1.5-0.1c0.1,0,0.1-0.1,0.1-0.1v-2c0.1,0,0.3,0,0.4,0
	c2,0,3.9-1.4,3.9-4.1C22.7,14.3,21.6,12.8,19.4,12.8L19.4,12.8z"/>
</svg>
